icons/fill-new-time-watch-1.svg

<svg xmlns="http://www.w3.org/2000/svg" width="32px" height="32px" viewBox="0 0 32 32" version="1.1">
    <title>fill-new-time-watch-1</title>
    <g id="fill-new-time-watch-1" stroke-width="1" fill-rule="evenodd">
        <path d="M21.0006412,25.800253 L21,29 C21,29.5522847 20.5522847,30 20,30 L12,30 C11.4477153,30 11,29.5522847 11,29 L10.9990102,25.8000748 C12.4993881,26.5672524 14.1991572,27 16,27 C17.8007033,27 19.5003486,26.5673194 21.0006412,25.800253 Z M16,7 C20.9705627,7 25,11.0294373 25,16 C25,20.9705627 20.9705627,25 16,25 C11.0294373,25 7,20.9705627 7,16 C7,11.0294373 11.0294373,7 16,7 Z M16,20 C15.4477153,20 15,20.4477153 15,21 C15,21.5522847 15.4477153,22 16,22 C16.5522847,22 17,21.5522847 17,21 C17,20.4477153 16.5522847,20 16,20 Z M18.8284271,18.8284271 C18.4379028,19.2189514 18.4379028,19.8521164 18.8284271,20.2426407 C19.2189514,20.633165 19.8521164,20.633165 20.2426407,20.2426407 C20.633165,19.8521164 20.633165,19.2189514 20.2426407,18.8284271 C19.8521164,18.4379028 19.2189514,18.4379028 18.8284271,18.8284271 Z M11.7573593,18.8284271 C11.366835,19.2189514 11.366835,19.8521164 11.7573593,20.2426407 C12.1478836,20.633165 12.7810486,20.633165 13.1715729,20.2426407 C13.5620972,19.8521164 13.5620972,19.2189514 13.1715729,18.8284271 C12.7810486,18.4379028 12.1478836,18.4379028 11.7573593,18.8284271 Z M21,15 C20.4477153,15 20,15.4477153 20,16 C20,16.5522847 20.4477153,17 21,17 C21.5522847,17 22,16.5522847 22,16 C22,15.4477153 21.5522847,15 21,15 Z M11,15 C10.4477153,15 10,15.4477153 10,16 C10,16.5522847 10.4477153,17 11,17 C11.5522847,17 12,16.5522847 12,16 C12,15.4477153 11.5522847,15 11,15 Z M18.8284271,11.7573593 C18.4379028,12.1478836 18.4379028,12.7810486 18.8284271,13.1715729 C19.2189514,13.5620972 19.8521164,13.5620972 20.2426407,13.1715729 C20.633165,12.7810486 20.633165,12.1478836 20.2426407,11.7573593 C19.8521164,11.366835 19.2189514,11.366835 18.8284271,11.7573593 Z M11.7573593,11.7573593 C11.366835,12.1478836 11.366835,12.7810486 11.7573593,13.1715729 C12.1478836,13.5620972 12.7810486,13.5620972 13.1715729,13.1715729 C13.5620972,12.7810486 13.5620972,12.1478836 13.1715729,11.7573593 C12.7810486,11.366835 12.1478836,11.366835 11.7573593,11.7573593 Z M16,10 C15.4477153,10 15,10.4477153 15,11 C15,11.5522847 15.4477153,12 16,12 C16.5522847,12 17,11.5522847 17,11 C17,10.4477153 16.5522847,10 16,10 Z M20,2 C20.5522847,2 21,2.44771525 21,3 L21.0006412,6.19974699 C19.5003486,5.4326806 17.8007033,5 16,5 C14.1991572,5 12.4993881,5.43274763 10.9990102,6.19992523 L11,3 C11,2.44771525 11.4477153,2 12,2 L20,2 Z" id="&#24418;&#29366;" />
    </g>
</svg>

<svg xmlns="http://www.w3.org/2000/svg" viewBox="0 0 32 32"><path fill="currentColor" d="M21 25.8V29a1 1 0 0 1-1 1h-8a1 1 0 0 1-1-1l-.001-3.2c1.5.767 3.2 1.2 5.001 1.2 1.8 0 3.5-.433 5-1.2M16 7a9 9 0 1 1 0 18 9 9 0 0 1 0-18m0 13a1 1 0 1 0 0 2 1 1 0 0 0 0-2m2.828-1.172a1 1 0 1 0 1.415 1.415 1 1 0 0 0-1.415-1.415m-7.07 0a1 1 0 1 0 1.414 1.415 1 1 0 0 0-1.415-1.415M21 15a1 1 0 1 0 0 2 1 1 0 0 0 0-2m-10 0a1 1 0 1 0 0 2 1 1 0 0 0 0-2m7.828-3.243a1 1 0 1 0 1.415 1.415 1 1 0 0 0-1.415-1.415m-7.07 0a1 1 0 1 0 1.414 1.415 1 1 0 0 0-1.415-1.415M16 10a1 1 0 1 0 0 2 1 1 0 0 0 0-2m4-8a1 1 0 0 1 1 1v3.2C19.5 5.433 17.8 5 16 5c-1.8 0-3.5.433-5.001 1.2L11 3a1 1 0 0 1 1-1z"/></svg>
